X: 29541
T: Noble?
R: reel
M: 4/4
K: Dmajor
|:zDEF A3D|EFAF ABE2|zDEF A2BF|Adc A3z2|
zDEF A3D|EFAF Adc2|zDEF AFAB|.E2z2 z4:|
|:Bdef- fBde|f2Bd fe2A|Bdef- fBde|f2B2 B.A2z|
Bdef- fBde|f2fB defa|bff(f f)efa|fee(e e)dcA:|

